img/arrows.svg

<svg width="765" height="24" viewBox="0 0 765 24" fill="none" xmlns="http://www.w3.org/2000/svg">
<path d="M2.40039 10.5C1.57196 10.5 0.900391 11.1716 0.900391 12C0.900391 12.8284 1.57196 13.5 2.40039 13.5V10.5ZM101.461 13.0607C102.047 12.4749 102.047 11.5251 101.461 10.9393L91.9151 1.3934C91.3293 0.807612 90.3796 0.807612 89.7938 1.3934C89.208 1.97918 89.208 2.92893 89.7938 3.51472L98.2791 12L89.7938 20.4853C89.208 21.0711 89.208 22.0208 89.7938 22.6066C90.3796 23.1924 91.3293 23.1924 91.9151 22.6066L101.461 13.0607ZM2.40039 13.5H100.4V10.5H2.40039V13.5Z" fill="#4CA7DE"/>
<path d="M273.4 10.5C272.572 10.5 271.9 11.1716 271.9 12C271.9 12.8284 272.572 13.5 273.4 13.5V10.5ZM372.461 13.0607C373.047 12.4749 373.047 11.5251 372.461 10.9393L362.915 1.3934C362.329 0.807612 361.38 0.807612 360.794 1.3934C360.208 1.97918 360.208 2.92893 360.794 3.51472L369.279 12L360.794 20.4853C360.208 21.0711 360.208 22.0208 360.794 22.6066C361.38 23.1924 362.329 23.1924 362.915 22.6066L372.461 13.0607ZM273.4 13.5H371.4V10.5H273.4V13.5Z" fill="#4CA7DE"/>
<path d="M665.4 10.5C664.572 10.5 663.9 11.1716 663.9 12C663.9 12.8284 664.572 13.5 665.4 13.5V10.5ZM764.461 13.0607C765.047 12.4749 765.047 11.5251 764.461 10.9393L754.915 1.3934C754.329 0.807612 753.38 0.807612 752.794 1.3934C752.208 1.97918 752.208 2.92893 752.794 3.51472L761.279 12L752.794 20.4853C752.208 21.0711 752.208 22.0208 752.794 22.6066C753.38 23.1924 754.329 23.1924 754.915 22.6066L764.461 13.0607ZM665.4 13.5H763.4V10.5H665.4V13.5Z" fill="#4CA7DE"/>
</svg>

<svg xmlns="http://www.w3.org/2000/svg" width="765" height="24" fill="none"><path fill="#4CA7DE" d="M2.4 10.5a1.5 1.5 0 0 0 0 3v-3Zm99.061 2.56a1.5 1.5 0 0 0 0-2.12l-9.546-9.547a1.5 1.5 0 1 0-2.121 2.122L98.279 12l-8.485 8.485a1.5 1.5 0 1 0 2.121 2.122l9.546-9.546Zm-99.06.44H100.4v-3h-98v3ZM273.4 10.5a1.5 1.5 0 0 0 0 3v-3Zm99.061 2.56a1.5 1.5 0 0 0 0-2.12l-9.546-9.547a1.5 1.5 0 1 0-2.121 2.122L369.279 12l-8.485 8.485a1.5 1.5 0 1 0 2.121 2.122l9.546-9.546Zm-99.061.44h98v-3h-98v3ZM665.4 10.5a1.5 1.5 0 0 0 0 3v-3Zm99.061 2.56a1.5 1.5 0 0 0 0-2.12l-9.546-9.547a1.5 1.5 0 1 0-2.121 2.122L761.279 12l-8.485 8.485a1.5 1.5 0 1 0 2.121 2.122l9.546-9.546Zm-99.061.44h98v-3h-98v3Z"/></svg>
